public/img/menu/other.svg

<svg width="50" height="50" xmlns="http://www.w3.org/2000/svg">
    <path style="fill:#000; opacity: 0.5;"
        d="M38.907 9.108H33.85V6.423c0-.766-.591-1.392-1.333-1.392h-1.853L28.25.692A1.34 1.34 0 0 0 27.098 0H22.91c-.474 0-.915.264-1.152.692l-2.414 4.331h-1.845c-.734 0-1.334.618-1.334 1.392v2.684h-5.064c-2.082 0-3.77 1.762-3.77 3.936v33.029c0 2.174 1.688 3.936 3.77 3.936h27.798c2.082 0 3.77-1.762 3.77-3.936v-33.02c.008-2.174-1.68-3.936-3.762-3.936zM23.675 2.775h2.65l1.254 2.248h-5.158l1.254-2.248zm-4.844 5.031h12.361v4.579H18.831V7.806zm21.196 38.258h-.008c0 .642-.497 1.161-1.112 1.161H11.109c-.615 0-1.112-.519-1.112-1.161v-33.02c0-.643.497-1.161 1.112-1.161h5.064v1.885c0 .766.592 1.392 1.333 1.392h15.019c.734 0 1.333-.618 1.333-1.392v-1.885h5.056c.616 0 1.113.518 1.113 1.161v33.02z" />
    <path style="fill:#000; opacity: 0.5;"
        d="M36.646 18.026h-7.683c-.733 0-1.333.617-1.333 1.391v9.124c0 .766.592 1.392 1.333 1.392h7.683c.734 0 1.333-.618 1.333-1.392v-9.132c0-.758-.591-1.383-1.333-1.383zm-1.325 9.14h-5.025v-6.357h5.025v6.357zM24.088 19.804H13.739c-.733 0-1.333.618-1.333 1.392 0 .774.592 1.391 1.333 1.391h10.349c.734 0 1.333-.617 1.333-1.391 0-.766-.591-1.392-1.333-1.392zM24.088 27.158H13.739c-.733 0-1.333.617-1.333 1.391s.592 1.392 1.333 1.392h10.349c.734 0 1.333-.618 1.333-1.392 0-.766-.591-1.391-1.333-1.391zM36.646 34.511H13.739c-.733 0-1.333.618-1.333 1.392 0 .765.592 1.391 1.333 1.391h22.923c.734 0 1.333-.617 1.333-1.391-.016-.766-.607-1.392-1.349-1.392zM36.646 41.865H13.739c-.733 0-1.333.617-1.333 1.391s.592 1.392 1.333 1.392h22.923c.734 0 1.333-.618 1.333-1.392-.016-.774-.607-1.391-1.349-1.391z" />
</svg>

<?xml version="1.0" encoding="utf-8"?>
<svg viewBox="0 0 50 50" width="50" height="50" xmlns="http://www.w3.org/2000/svg">
  <path d="M 38.907 9.108 L 33.85 9.108 L 33.85 6.423 C 33.85 5.657 33.259 5.031 32.517 5.031 L 30.664 5.031 L 28.25 0.692 C 28.013 0.272 27.571 0 27.098 0 L 22.91 0 C 22.436 0 21.995 0.264 21.758 0.692 L 19.344 5.023 L 17.499 5.023 C 16.765 5.023 16.165 5.641 16.165 6.415 L 16.165 9.099 L 11.101 9.099 C 9.019 9.099 7.331 10.861 7.331 13.035 L 7.331 46.064 C 7.331 48.238 9.019 50 11.101 50 L 38.899 50 C 40.981 50 42.669 48.238 42.669 46.064 L 42.669 13.044 C 42.677 10.87 40.989 9.108 38.907 9.108 Z M 23.675 2.775 L 26.325 2.775 L 27.579 5.023 L 22.421 5.023 L 23.675 2.775 Z M 18.831 7.806 L 31.192 7.806 L 31.192 12.385 L 18.831 12.385 L 18.831 7.806 Z M 40.027 46.064 L 40.019 46.064 C 40.019 46.706 39.522 47.225 38.907 47.225 L 11.109 47.225 C 10.494 47.225 9.997 46.706 9.997 46.064 L 9.997 13.044 C 9.997 12.401 10.494 11.883 11.109 11.883 L 16.173 11.883 L 16.173 13.768 C 16.173 14.534 16.765 15.16 17.506 15.16 L 32.525 15.16 C 33.259 15.16 33.858 14.542 33.858 13.768 L 33.858 11.883 L 38.914 11.883 C 39.53 11.883 40.027 12.401 40.027 13.044 L 40.027 46.064 Z" transform="matrix(1, 0, 0, 1, 0, 3.552713678800501e-15)"/>
  <path d="M 36.646 18.026 L 28.963 18.026 C 28.23 18.026 27.63 18.643 27.63 19.417 L 27.63 28.541 C 27.63 29.307 28.222 29.933 28.963 29.933 L 36.646 29.933 C 37.38 29.933 37.979 29.315 37.979 28.541 L 37.979 19.409 C 37.979 18.651 37.388 18.026 36.646 18.026 Z M 35.321 27.166 L 30.296 27.166 L 30.296 20.809 L 35.321 20.809 L 35.321 27.166 Z" transform="matrix(1, 0, 0, 1, 0, 3.552713678800501e-15)"/>
  <path d="M 24.088 19.804 L 13.739 19.804 C 13.006 19.804 12.406 20.422 12.406 21.196 C 12.406 21.97 12.998 22.587 13.739 22.587 L 24.088 22.587 C 24.822 22.587 25.421 21.97 25.421 21.196 C 25.421 20.43 24.83 19.804 24.088 19.804 Z" transform="matrix(1, 0, 0, 1, 0, 3.552713678800501e-15)"/>
  <path d="M 24.088 27.158 L 13.739 27.158 C 13.006 27.158 12.406 27.775 12.406 28.549 C 12.406 29.323 12.998 29.941 13.739 29.941 L 24.088 29.941 C 24.822 29.941 25.421 29.323 25.421 28.549 C 25.421 27.783 24.83 27.158 24.088 27.158 Z" transform="matrix(1, 0, 0, 1, 0, 3.552713678800501e-15)"/>
  <path d="M 36.646 34.511 L 13.739 34.511 C 13.006 34.511 12.406 35.129 12.406 35.903 C 12.406 36.668 12.998 37.294 13.739 37.294 L 36.662 37.294 C 37.396 37.294 37.995 36.677 37.995 35.903 C 37.979 35.137 37.388 34.511 36.646 34.511 Z" transform="matrix(1, 0, 0, 1, 0, 3.552713678800501e-15)"/>
  <path d="M 36.646 41.865 L 13.739 41.865 C 13.006 41.865 12.406 42.482 12.406 43.256 C 12.406 44.03 12.998 44.648 13.739 44.648 L 36.662 44.648 C 37.396 44.648 37.995 44.03 37.995 43.256 C 37.979 42.482 37.388 41.865 36.646 41.865 Z" transform="matrix(1, 0, 0, 1, 0, 3.552713678800501e-15)"/>
</svg>
